Newaita-dark/apps/64/preferences-desktop-emoticons.svg

<svg height="64" viewBox="0 0 64 64" width="64" xmlns="http://www.w3.org/2000/svg" xmlns:xlink="http://www.w3.org/1999/xlink"><linearGradient id="a"><stop offset="0" stop-opacity=".313726"/><stop offset=".222222" stop-opacity=".27451"/><stop offset="1" stop-opacity="0"/></linearGradient><radialGradient id="b" cx="450.908936" cy="189.579361" gradientTransform="matrix(.00000035 -.156265 -.281277 -.0000002 89.046304 127.190659)" gradientUnits="userSpaceOnUse" r="21.166656" xlink:href="#a"/><radialGradient id="c" cx="450.908936" cy="189.579361" gradientTransform="matrix(-.00000035 .156265 .281277 .0000002 -25.540237 -15.054964)" gradientUnits="userSpaceOnUse" r="21.166656" xlink:href="#a"/><radialGradient id="d" cx="450.908936" cy="189.579361" gradientTransform="matrix(-.00000035 -.156265 .281277 -.0000002 -25.540237 127.190659)" gradientUnits="userSpaceOnUse" r="21.166656" xlink:href="#a"/><radialGradient id="e" cx="450.908936" cy="189.579361" gradientTransform="matrix(.00000035 .156265 -.281277 .0000002 89.0463 -15.054965)" gradientUnits="userSpaceOnUse" r="21.166656" xlink:href="#a"/><linearGradient id="f" gradientTransform="matrix(.0267201 0 0 .125012 24.930772 26.877567)" gradientUnits="userSpaceOnUse" x1="255.323059" x2="255.323044" y1="233.5" y2="254.666656"><stop offset="0" stop-opacity=".27451"/><stop offset="1" stop-opacity="0"/></linearGradient><linearGradient id="g" gradientUnits="userSpaceOnUse" x1="31.753048" x2="31.753048" y1="5.79220799994" y2="56.067868"><stop offset="0" stop-color="#ffb74d"/><stop offset="1" stop-color="#ffa726"/></linearGradient><linearGradient id="h"><stop offset="0" stop-color="#424242"/><stop offset="1" stop-color="#616161"/></linearGradient><linearGradient id="i" gradientUnits="userSpaceOnUse" x1="23.15332971133" x2="23.15332971133" xlink:href="#h" y1="28.28396356598" y2="21.66872281586"/><linearGradient id="j" gradientUnits="userSpaceOnUse" x1="41.01441207506" x2="41.01441207506" xlink:href="#h" y1="28.28396397864" y2="21.66872312434"/><linearGradient id="k" gradientUnits="userSpaceOnUse" x1="31.753048" x2="31.753048" xlink:href="#h" y1="46.17922500006" y2="38.24096199997"/><path d="m36.382812 56.066406h5.292969v-2.644531h-5.292969zm0 0" fill="url(#b)"/><path d="m27.121094 56.066406h-5.289063v2.648438h5.289063zm0 0" fill="url(#c)"/><path d="m27.121094 56.066406h-5.289063v-2.644531h5.289063zm0 0" fill="url(#d)"/><path d="m36.382812 56.066406h5.292969v2.648438h-5.292969zm0 0" fill="url(#e)"/><path d="m27.121094 55.40625h9.261718v3.308594h-9.261718zm0 0" fill="url(#f)"/><path d="m31.753906 5.792969c13.882813 0 25.136719 11.253906 25.136719 25.136719 0 13.882812-11.253906 25.136718-25.136719 25.136718-13.882812 0-25.140625-11.253906-25.140625-25.136718 0-13.882813 11.257813-25.136719 25.140625-25.136719zm0 0" fill="url(#g)"/><path d="m31.753906 55.902344c-13.925781 0-25.140625-11.210938-25.140625-25.136719 0-.082031.003907-.164063.003907-.246094.128906 13.8125 11.292968 24.890625 25.136718 24.890625s25.003906-11.078125 25.136719-24.890625v.246094c0 13.925781-11.210937 25.136719-25.136719 25.136719zm0 0" fill-opacity=".196078"/><path d="m31.753906 5.957031c-13.925781 0-25.140625 11.210938-25.140625 25.136719 0 .082031.003907.164062.003907.246094.128906-13.808594 11.292968-24.890625 25.136718-24.890625s25.003906 11.082031 25.136719 24.890625c0-.082032 0-.164063 0-.246094 0-13.925781-11.210937-25.136719-25.136719-25.136719zm0 0" fill="#fff" fill-opacity=".392157"/><path d="m31.753906 5.605469c-14.027344 0-25.328125 11.296875-25.328125 25.324219 0 14.027343 11.300781 25.324218 25.328125 25.324218s25.324219-11.296875 25.324219-25.324218c0-14.027344-11.296875-25.324219-25.324219-25.324219zm0 .375c13.824219 0 24.949219 11.125 24.949219 24.949219 0 13.824218-11.125 24.949218-24.949219 24.949218-13.828125 0-24.953125-11.125-24.953125-24.949218 0-13.824219 11.125-24.949219 24.953125-24.949219zm0 0" fill="#212121"/><path d="m26.460938 25.128906c0-1.835937-1.476563-3.308594-3.308594-3.308594-1.683594 0-3.070313 1.25-3.277344 2.875-1.550781-.496093-2.015625-1.769531-2.015625-.890624.226563 2.152343 2.589844 4.574218 5.203125 4.628906h.089844c1.832031 0 3.308594-1.472656 3.308594-3.304688zm0 0" fill="url(#i)"/><path d="m40.351562 21.730469c1.828126 0 3.308594 1.480469 3.308594 3.304687 0 1.828125-1.480468 3.308594-3.308594 3.308594-1.824218 0-3.304687-1.480469-3.304687-3.308594 0-1.824218 1.480469-3.304687 3.304687-3.304687zm0 0" fill="url(#j)"/><path d="m40.351562 21.730469c-1.832031 0-3.304687 1.472656-3.304687 3.304687 0 .160156.007813.316406.03125.46875.226563-1.613281 1.601563-2.84375 3.273437-2.84375 1.675782 0 3.050782 1.230469 3.277344 2.84375.019532-.152344.03125-.308594.03125-.46875 0-1.832031-1.476562-3.304687-3.308594-3.304687zm0 0" fill="#fff" fill-opacity=".392157"/><path d="m322.781676-41.17285c14.623603 0 26.466222 11.842619 26.466222 26.434976 0 14.623603-11.842619 26.466223-26.466222 26.466223-14.592357 0-26.434976-11.84262-26.434976-26.466223 0-14.592357 11.842619-26.434976 26.434976-26.434976zm0 0" fill="none" stroke="#212121" stroke-linecap="square" stroke-linejoin="round" stroke-width="3" transform="matrix(.125012 0 0 .125012 0 26.877566)"/><path d="m23.152344 21.820312c-1.683594 0-3.070313 1.25-3.277344 2.875-1.550781-.496093-2.015625-1.769531-2.015625-.890624.023437.210937.066406.425781.128906.636718.222657.078125.773438.832032 1.886719 1.1875.207031-1.628906 1.59375-2.878906 3.277344-2.878906 1.675781 0 3.050781 1.234375 3.277344 2.84375.019531-.152344.03125-.308594.03125-.464844 0-1.835937-1.476563-3.308594-3.308594-3.308594zm0 0" fill="#fff" fill-opacity=".392157"/><path d="m211.667287-13.987946c0-14.686097-11.811372-26.466222-26.466223-26.466222-13.467464 0-24.560154 9.999045-26.216246 22.997804-12.405066-3.968372-16.123461-14.154899-16.123461-7.12432 1.812327 17.217106 20.716772 36.590256 41.621026 37.027714h.718681c14.654851 0 26.466223-11.780125 26.466223-26.434976zm0 0" fill="none" stroke="#212121" stroke-linecap="square" stroke-linejoin="round" stroke-width="3" transform="matrix(.125012 0 0 .125012 0 26.877566)"/><path d="m42.34375 37.546875c-.589844.003906-1.144531.265625-1.523438.71875-1.269531 1.480469-5.125 2.773437-9.066406 2.773437s-7.796875-1.292968-9.070312-2.773437c-.460938-.554687-1.183594-.816406-1.890625-.6875-.710938.128906-1.292969.628906-1.53125 1.308594-.234375.683593-.085938 1.4375.390625 1.976562 2.699218 3.148438 7.441406 4.171875 12.101562 4.171875 4.65625 0 9.402344-1.023437 12.101563-4.171875.519531-.589843.644531-1.429687.316406-2.148437-.324219-.714844-1.042969-1.175782-1.828125-1.167969zm0 0" fill="url(#k)"/><path d="m21.101562 37.546875c-.582031.011719-1.128906.28125-1.496093.730469-.367188.449218-.523438 1.039062-.421875 1.613281.136718-.765625.703125-1.382813 1.453125-1.582031.753906-.199219 1.550781.054687 2.046875.652344 1.273437 1.480468 5.128906 2.773437 9.070312 2.773437s7.796875-1.292969 9.066406-2.773437c.378907-.453126.933594-.714844 1.523438-.71875.96875-.007813 1.804688.6875 1.976562 1.640624.101563-.582031-.058593-1.179687-.441406-1.628906-.382812-.453125-.945312-.710937-1.535156-.707031s-1.144531.265625-1.523438.71875c-1.269531 1.480469-5.125 2.773437-9.066406 2.773437s-7.796875-1.292968-9.070312-2.773437c-.386719-.46875-.972656-.734375-1.582032-.71875zm0 0" fill="#fff" fill-opacity=".392157"/><path d="m44.285156 40.054688c-.078125.300781-.226562.574218-.429687.808593-2.699219 3.148438-7.445313 4.171875-12.101563 4.171875-4.660156 0-9.402344-1.023437-12.101562-4.171875-.203125-.230469-.351563-.507812-.433594-.808593-.171875.644531-.007812 1.335937.433594 1.835937 2.699218 3.148437 7.441406 4.167969 12.101562 4.167969 4.65625 0 9.402344-1.019532 12.101563-4.167969.441406-.503906.601562-1.191406.429687-1.835937zm0 0" fill-opacity=".235294"/><path d="m338.717654 85.346318c-4.718299.031247-9.155376 2.124797-12.186336 5.749451-10.15528 11.842619-40.996085 22.185382-72.524324 22.185382-31.52824 0-62.369045-10.342763-72.555572-22.185382-3.687148-4.437076-9.467846-6.530626-15.123556-5.499475-5.686956 1.031152-10.342762 5.03077-12.24883 10.467751-1.874821 5.468228-.687434 11.498902 3.124702 15.81099 21.591688 25.185095 59.525565 33.371813 96.803256 33.371813 37.246443 0 75.211567-8.186718 96.803255-33.371813 4.155853-4.718299 5.155758-11.436408 2.531009-17.185859-2.593503-5.718204-8.342954-9.405352-14.623604-9.342858zm0 0" fill="none" stroke="#212121" stroke-linecap="round" stroke-linejoin="round" stroke-width="3" transform="matrix(.125012 0 0 .125012 0 26.877566)"/><g fill-opacity=".235294"><path d="m17.9375 24.4375c-.054688.011719-.078125.101562-.078125.296875.226563 2.15625 2.589844 4.574219 5.203125 4.632813h.089844c1.832031 0 3.308594-1.476563 3.308594-3.308594 0-.125-.007813-.253906-.019532-.375-.1875 1.652344-1.582031 2.929687-3.289062 2.929687-.03125 0-.0625 0-.089844 0-2.429688-.050781-4.644531-2.148437-5.125-4.175781zm0 0"/><path d="m37.066406 25.59375c-.015625.121094-.019531.246094-.019531.375 0 1.832031 1.472656 3.308594 3.304687 3.308594 1.832032 0 3.308594-1.476563 3.308594-3.308594 0-.128906-.007812-.253906-.019531-.375-.1875 1.652344-1.582031 2.929688-3.289063 2.929688-1.703124 0-3.097656-1.277344-3.285156-2.929688zm0 0"/></g></svg>

<?xml version="1.0" encoding="UTF-8"?>
<svg xmlns="http://www.w3.org/2000/svg" xmlns:xlink="http://www.w3.org/1999/xlink" width="64px" height="64px" viewBox="0 0 64 64" version="1.1">
<defs>
<radialGradient id="radial0" gradientUnits="userSpaceOnUse" cx="450.908936" cy="189.579361" fx="450.908936" fy="189.579361" r="21.166656" gradientTransform="matrix(0.000000348341,-0.156265,-0.281277,-0.000000203077,89.046304,127.190659)">
<stop offset="0" style="stop-color:rgb(0%,0%,0%);stop-opacity:0.313726;"/>
<stop offset="0.222222" style="stop-color:rgb(0%,0%,0%);stop-opacity:0.27451;"/>
<stop offset="1" style="stop-color:rgb(0%,0%,0%);stop-opacity:0;"/>
</radialGradient>
<radialGradient id="radial1" gradientUnits="userSpaceOnUse" cx="450.908936" cy="189.579361" fx="450.908936" fy="189.579361" r="21.166656" gradientTransform="matrix(-0.000000348341,0.156265,0.281277,0.000000203077,-25.540237,-15.054964)">
<stop offset="0" style="stop-color:rgb(0%,0%,0%);stop-opacity:0.313726;"/>
<stop offset="0.222222" style="stop-color:rgb(0%,0%,0%);stop-opacity:0.27451;"/>
<stop offset="1" style="stop-color:rgb(0%,0%,0%);stop-opacity:0;"/>
</radialGradient>
<radialGradient id="radial2" gradientUnits="userSpaceOnUse" cx="450.908936" cy="189.579361" fx="450.908936" fy="189.579361" r="21.166656" gradientTransform="matrix(-0.000000348341,-0.156265,0.281277,-0.000000203077,-25.540237,127.190659)">
<stop offset="0" style="stop-color:rgb(0%,0%,0%);stop-opacity:0.313726;"/>
<stop offset="0.222222" style="stop-color:rgb(0%,0%,0%);stop-opacity:0.27451;"/>
<stop offset="1" style="stop-color:rgb(0%,0%,0%);stop-opacity:0;"/>
</radialGradient>
<radialGradient id="radial3" gradientUnits="userSpaceOnUse" cx="450.908936" cy="189.579361" fx="450.908936" fy="189.579361" r="21.166656" gradientTransform="matrix(0.000000348341,0.156265,-0.281277,0.000000203077,89.0463,-15.054965)">
<stop offset="0" style="stop-color:rgb(0%,0%,0%);stop-opacity:0.313726;"/>
<stop offset="0.222222" style="stop-color:rgb(0%,0%,0%);stop-opacity:0.27451;"/>
<stop offset="1" style="stop-color:rgb(0%,0%,0%);stop-opacity:0;"/>
</radialGradient>
<linearGradient id="linear0" gradientUnits="userSpaceOnUse" x1="255.323059" y1="233.5" x2="255.323044" y2="254.666656" gradientTransform="matrix(0.0267201,0,0,0.125012,24.930772,26.877567)">
<stop offset="0" style="stop-color:rgb(0%,0%,0%);stop-opacity:0.27451;"/>
<stop offset="1" style="stop-color:rgb(0%,0%,0%);stop-opacity:0;"/>
</linearGradient>
<linearGradient id="linear1" gradientUnits="userSpaceOnUse" x1="254" y1="-168.666672" x2="254" y2="233.5" gradientTransform="matrix(0.125012,0,0,0.125012,0,26.877566)">
<stop offset="0" style="stop-color:rgb(100%,71.764708%,30.19608%);stop-opacity:1;"/>
<stop offset="1" style="stop-color:rgb(100%,65.490198%,14.901961%);stop-opacity:1;"/>
</linearGradient>
<linearGradient id="linear2" gradientUnits="userSpaceOnUse" x1="190.50029" y1="30.968079" x2="190.50029" y2="-32.531933" gradientTransform="matrix(0.104177,0,0,0.104177,3.307581,25.057802)">
<stop offset="0" style="stop-color:rgb(25.882354%,25.882354%,25.882354%);stop-opacity:1;"/>
<stop offset="1" style="stop-color:rgb(38.039216%,38.039216%,38.039216%);stop-opacity:1;"/>
</linearGradient>
<linearGradient id="linear3" gradientUnits="userSpaceOnUse" x1="196.850006" y1="31.838659" x2="196.850006" y2="-31.661354" gradientTransform="matrix(0.104177,0,0,0.104177,20.507169,24.967108)">
<stop offset="0" style="stop-color:rgb(25.882354%,25.882354%,25.882354%);stop-opacity:1;"/>
<stop offset="1" style="stop-color:rgb(38.039216%,38.039216%,38.039216%);stop-opacity:1;"/>
</linearGradient>
<linearGradient id="linear4" gradientUnits="userSpaceOnUse" x1="254" y1="159.416672" x2="254" y2="95.916664" gradientTransform="matrix(0.125012,0,0,0.125012,0,26.250228)">
<stop offset="0" style="stop-color:rgb(25.882354%,25.882354%,25.882354%);stop-opacity:1;"/>
<stop offset="1" style="stop-color:rgb(38.039216%,38.039216%,38.039216%);stop-opacity:1;"/>
</linearGradient>
</defs>
<g id="surface1">
<path style=" stroke:none;fill-rule:nonzero;fill:url(#radial0);" d="M 36.382812 56.066406 L 41.675781 56.066406 L 41.675781 53.421875 L 36.382812 53.421875 Z M 36.382812 56.066406 "/>
<path style=" stroke:none;fill-rule:nonzero;fill:url(#radial1);" d="M 27.121094 56.066406 L 21.832031 56.066406 L 21.832031 58.714844 L 27.121094 58.714844 Z M 27.121094 56.066406 "/>
<path style=" stroke:none;fill-rule:nonzero;fill:url(#radial2);" d="M 27.121094 56.066406 L 21.832031 56.066406 L 21.832031 53.421875 L 27.121094 53.421875 Z M 27.121094 56.066406 "/>
<path style=" stroke:none;fill-rule:nonzero;fill:url(#radial3);" d="M 36.382812 56.066406 L 41.675781 56.066406 L 41.675781 58.714844 L 36.382812 58.714844 Z M 36.382812 56.066406 "/>
<path style=" stroke:none;fill-rule:nonzero;fill:url(#linear0);" d="M 27.121094 55.40625 L 36.382812 55.40625 L 36.382812 58.714844 L 27.121094 58.714844 Z M 27.121094 55.40625 "/>
<path style=" stroke:none;fill-rule:nonzero;fill:url(#linear1);" d="M 31.753906 5.792969 C 45.636719 5.792969 56.890625 17.046875 56.890625 30.929688 C 56.890625 44.8125 45.636719 56.066406 31.753906 56.066406 C 17.871094 56.066406 6.613281 44.8125 6.613281 30.929688 C 6.613281 17.046875 17.871094 5.792969 31.753906 5.792969 Z M 31.753906 5.792969 "/>
<path style=" stroke:none;fill-rule:nonzero;fill:rgb(0%,0%,0%);fill-opacity:0.196078;" d="M 31.753906 55.902344 C 17.828125 55.902344 6.613281 44.691406 6.613281 30.765625 C 6.613281 30.683594 6.617188 30.601562 6.617188 30.519531 C 6.746094 44.332031 17.910156 55.410156 31.753906 55.410156 C 45.597656 55.410156 56.757812 44.332031 56.890625 30.519531 C 56.890625 30.601562 56.890625 30.683594 56.890625 30.765625 C 56.890625 44.691406 45.679688 55.902344 31.753906 55.902344 Z M 31.753906 55.902344 "/>
<path style=" stroke:none;fill-rule:nonzero;fill:rgb(100%,100%,100%);fill-opacity:0.392157;" d="M 31.753906 5.957031 C 17.828125 5.957031 6.613281 17.167969 6.613281 31.09375 C 6.613281 31.175781 6.617188 31.257812 6.617188 31.339844 C 6.746094 17.53125 17.910156 6.449219 31.753906 6.449219 C 45.597656 6.449219 56.757812 17.53125 56.890625 31.339844 C 56.890625 31.257812 56.890625 31.175781 56.890625 31.09375 C 56.890625 17.167969 45.679688 5.957031 31.753906 5.957031 Z M 31.753906 5.957031 "/>
<path style=" stroke:none;fill-rule:nonzero;fill:rgb(12.941177%,12.941177%,12.941177%);fill-opacity:1;" d="M 31.753906 5.605469 C 17.726562 5.605469 6.425781 16.902344 6.425781 30.929688 C 6.425781 44.957031 17.726562 56.253906 31.753906 56.253906 C 45.78125 56.253906 57.078125 44.957031 57.078125 30.929688 C 57.078125 16.902344 45.78125 5.605469 31.753906 5.605469 Z M 31.753906 5.980469 C 45.578125 5.980469 56.703125 17.105469 56.703125 30.929688 C 56.703125 44.753906 45.578125 55.878906 31.753906 55.878906 C 17.925781 55.878906 6.800781 44.753906 6.800781 30.929688 C 6.800781 17.105469 17.925781 5.980469 31.753906 5.980469 Z M 31.753906 5.980469 "/>
<path style=" stroke:none;fill-rule:nonzero;fill:url(#linear2);" d="M 26.460938 25.128906 C 26.460938 23.292969 24.984375 21.820312 23.152344 21.820312 C 21.46875 21.820312 20.082031 23.070312 19.875 24.695312 C 18.324219 24.199219 17.859375 22.925781 17.859375 23.804688 C 18.085938 25.957031 20.449219 28.378906 23.0625 28.433594 C 23.089844 28.433594 23.121094 28.433594 23.152344 28.433594 C 24.984375 28.433594 26.460938 26.960938 26.460938 25.128906 Z M 26.460938 25.128906 "/>
<path style=" stroke:none;fill-rule:nonzero;fill:url(#linear3);" d="M 40.351562 21.730469 C 42.179688 21.730469 43.660156 23.210938 43.660156 25.035156 C 43.660156 26.863281 42.179688 28.34375 40.351562 28.34375 C 38.527344 28.34375 37.046875 26.863281 37.046875 25.035156 C 37.046875 23.210938 38.527344 21.730469 40.351562 21.730469 Z M 40.351562 21.730469 "/>
<path style=" stroke:none;fill-rule:nonzero;fill:rgb(100%,100%,100%);fill-opacity:0.392157;" d="M 40.351562 21.730469 C 38.519531 21.730469 37.046875 23.203125 37.046875 25.035156 C 37.046875 25.195312 37.054688 25.351562 37.078125 25.503906 C 37.304688 23.890625 38.679688 22.660156 40.351562 22.660156 C 42.027344 22.660156 43.402344 23.890625 43.628906 25.503906 C 43.648438 25.351562 43.660156 25.195312 43.660156 25.035156 C 43.660156 23.203125 42.183594 21.730469 40.351562 21.730469 Z M 40.351562 21.730469 "/>
<path style="fill:none;stroke-width:3;stroke-linecap:square;stroke-linejoin:round;stroke:rgb(12.941177%,12.941177%,12.941177%);stroke-opacity:1;stroke-miterlimit:4;" d="M 322.781676 -41.17285 C 337.405279 -41.17285 349.247898 -29.330231 349.247898 -14.737874 C 349.247898 -0.114271 337.405279 11.728349 322.781676 11.728349 C 308.189319 11.728349 296.3467 -0.114271 296.3467 -14.737874 C 296.3467 -29.330231 308.189319 -41.17285 322.781676 -41.17285 Z M 322.781676 -41.17285 " transform="matrix(0.125012,0,0,0.125012,0,26.877566)"/>
<path style=" stroke:none;fill-rule:nonzero;fill:rgb(100%,100%,100%);fill-opacity:0.392157;" d="M 23.152344 21.820312 C 21.46875 21.820312 20.082031 23.070312 19.875 24.695312 C 18.324219 24.199219 17.859375 22.925781 17.859375 23.804688 C 17.882812 24.015625 17.925781 24.230469 17.988281 24.441406 C 18.210938 24.519531 18.761719 25.273438 19.875 25.628906 C 20.082031 24 21.46875 22.75 23.152344 22.75 C 24.828125 22.75 26.203125 23.984375 26.429688 25.59375 C 26.449219 25.441406 26.460938 25.285156 26.460938 25.128906 C 26.460938 23.292969 24.984375 21.820312 23.152344 21.820312 Z M 23.152344 21.820312 "/>
<path style="fill:none;stroke-width:3;stroke-linecap:square;stroke-linejoin:round;stroke:rgb(12.941177%,12.941177%,12.941177%);stroke-opacity:1;stroke-miterlimit:4;" d="M 211.667287 -13.987946 C 211.667287 -28.674043 199.855915 -40.454168 185.201064 -40.454168 C 171.7336 -40.454168 160.64091 -30.455123 158.984818 -17.456364 C 146.579752 -21.424736 142.861357 -31.611263 142.861357 -24.580684 C 144.673684 -7.363578 163.578129 12.009572 184.482383 12.44703 C 184.701112 12.44703 184.951088 12.44703 185.201064 12.44703 C 199.855915 12.44703 211.667287 0.666905 211.667287 -13.987946 Z M 211.667287 -13.987946 " transform="matrix(0.125012,0,0,0.125012,0,26.877566)"/>
<path style=" stroke:none;fill-rule:nonzero;fill:url(#linear4);" d="M 42.34375 37.546875 C 41.753906 37.550781 41.199219 37.8125 40.820312 38.265625 C 39.550781 39.746094 35.695312 41.039062 31.753906 41.039062 C 27.8125 41.039062 23.957031 39.746094 22.683594 38.265625 C 22.222656 37.710938 21.5 37.449219 20.792969 37.578125 C 20.082031 37.707031 19.5 38.207031 19.261719 38.886719 C 19.027344 39.570312 19.175781 40.324219 19.652344 40.863281 C 22.351562 44.011719 27.09375 45.035156 31.753906 45.035156 C 36.410156 45.035156 41.15625 44.011719 43.855469 40.863281 C 44.375 40.273438 44.5 39.433594 44.171875 38.714844 C 43.847656 38 43.128906 37.539062 42.34375 37.546875 Z M 42.34375 37.546875 "/>
<path style=" stroke:none;fill-rule:nonzero;fill:rgb(100%,100%,100%);fill-opacity:0.392157;" d="M 21.101562 37.546875 C 20.519531 37.558594 19.972656 37.828125 19.605469 38.277344 C 19.238281 38.726562 19.082031 39.316406 19.183594 39.890625 C 19.320312 39.125 19.886719 38.507812 20.636719 38.308594 C 21.390625 38.109375 22.1875 38.363281 22.683594 38.960938 C 23.957031 40.441406 27.8125 41.734375 31.753906 41.734375 C 35.695312 41.734375 39.550781 40.441406 40.820312 38.960938 C 41.199219 38.507812 41.753906 38.246094 42.34375 38.242188 C 43.3125 38.234375 44.148438 38.929688 44.320312 39.882812 C 44.421875 39.300781 44.261719 38.703125 43.878906 38.253906 C 43.496094 37.800781 42.933594 37.542969 42.34375 37.546875 C 41.753906 37.550781 41.199219 37.8125 40.820312 38.265625 C 39.550781 39.746094 35.695312 41.039062 31.753906 41.039062 C 27.8125 41.039062 23.957031 39.746094 22.683594 38.265625 C 22.296875 37.796875 21.710938 37.53125 21.101562 37.546875 Z M 21.101562 37.546875 "/>
<path style=" stroke:none;fill-rule:nonzero;fill:rgb(0%,0%,0%);fill-opacity:0.235294;" d="M 44.285156 40.054688 C 44.207031 40.355469 44.058594 40.628906 43.855469 40.863281 C 41.15625 44.011719 36.410156 45.035156 31.753906 45.035156 C 27.09375 45.035156 22.351562 44.011719 19.652344 40.863281 C 19.449219 40.632812 19.300781 40.355469 19.21875 40.054688 C 19.046875 40.699219 19.210938 41.390625 19.652344 41.890625 C 22.351562 45.039062 27.09375 46.058594 31.753906 46.058594 C 36.410156 46.058594 41.15625 45.039062 43.855469 41.890625 C 44.296875 41.386719 44.457031 40.699219 44.285156 40.054688 Z M 44.285156 40.054688 "/>
<path style="fill:none;stroke-width:3;stroke-linecap:round;stroke-linejoin:round;stroke:rgb(12.941177%,12.941177%,12.941177%);stroke-opacity:1;stroke-miterlimit:4;" d="M 338.717654 85.346318 C 333.999355 85.377565 329.562278 87.471115 326.531318 91.095769 C 316.376038 102.938388 285.535233 113.281151 254.006994 113.281151 C 222.478754 113.281151 191.637949 102.938388 181.451422 91.095769 C 177.764274 86.658693 171.983576 84.565143 166.327866 85.596294 C 160.64091 86.627446 155.985104 90.627064 154.079036 96.064045 C 152.204215 101.532273 153.391602 107.562947 157.203738 111.875035 C 178.795426 137.06013 216.729303 145.246848 254.006994 145.246848 C 291.253437 145.246848 329.218561 137.06013 350.810249 111.875035 C 354.966102 107.156736 355.966007 100.438627 353.341258 94.689176 C 350.747755 88.970972 344.998304 85.283824 338.717654 85.346318 Z M 338.717654 85.346318 " transform="matrix(0.125012,0,0,0.125012,0,26.877566)"/>
<path style=" stroke:none;fill-rule:nonzero;fill:rgb(0%,0%,0%);fill-opacity:0.235294;" d="M 17.9375 24.4375 C 17.882812 24.449219 17.859375 24.539062 17.859375 24.734375 C 18.085938 26.890625 20.449219 29.308594 23.0625 29.367188 C 23.089844 29.367188 23.121094 29.367188 23.152344 29.367188 C 24.984375 29.367188 26.460938 27.890625 26.460938 26.058594 C 26.460938 25.933594 26.453125 25.804688 26.441406 25.683594 C 26.253906 27.335938 24.859375 28.613281 23.152344 28.613281 C 23.121094 28.613281 23.089844 28.613281 23.0625 28.613281 C 20.632812 28.5625 18.417969 26.464844 17.9375 24.4375 Z M 17.9375 24.4375 "/>
<path style=" stroke:none;fill-rule:nonzero;fill:rgb(0%,0%,0%);fill-opacity:0.235294;" d="M 37.066406 25.59375 C 37.050781 25.714844 37.046875 25.839844 37.046875 25.96875 C 37.046875 27.800781 38.519531 29.277344 40.351562 29.277344 C 42.183594 29.277344 43.660156 27.800781 43.660156 25.96875 C 43.660156 25.839844 43.652344 25.714844 43.640625 25.59375 C 43.453125 27.246094 42.058594 28.523438 40.351562 28.523438 C 38.648438 28.523438 37.253906 27.246094 37.066406 25.59375 Z M 37.066406 25.59375 "/>
</g>
</svg>
